src/assets/tenzir-light.svg

<svg width="100" height="40" viewBox="0 -1 100 40" fill="none" xmlns="http://www.w3.org/2000/svg">
<g clip-path="url(#clip0_25_21)">
<path d="M9.61953 22.745L13.9644 12.4675C13.9832 12.4275 13.9932 12.3825 13.9944 12.3387C13.9944 12.2937 13.9869 12.25 13.9707 12.2087C13.9544 12.1675 13.9281 12.13 13.8969 12.0987C13.8656 12.0675 13.8269 12.0425 13.7856 12.0275C13.7443 12.0112 13.6993 12.0012 13.6556 12.0012H3.03033C2.96156 11.9962 2.89155 12.0137 2.83403 12.0512C2.77527 12.0887 2.73025 12.1425 2.704 12.2075L1.01481 16.2787C0.997307 16.3187 0.987305 16.3637 0.987305 16.4075C0.987305 16.4525 0.994807 16.4962 1.01231 16.5375C1.02982 16.5787 1.05482 16.615 1.08608 16.6462C1.11859 16.6775 1.1561 16.7012 1.19736 16.7175C1.23737 16.735 1.28113 16.7437 1.32489 16.7437H6.47122C6.55749 16.7437 6.64126 16.7787 6.70253 16.84C6.7638 16.9012 6.79756 16.985 6.79756 17.0712C6.79756 17.1162 6.7888 17.16 6.7713 17.2025L2.48144 27.5325C2.46269 27.5737 2.45268 27.6175 2.45268 27.6625C2.45268 27.7075 2.46019 27.7512 2.47769 27.7925C2.49519 27.8337 2.5202 27.8712 2.55271 27.9025C2.58522 27.9337 2.62273 27.9575 2.66524 27.9737C2.70525 27.9912 2.74901 28 2.79277 28H14.0544C14.1244 28.005 14.1932 27.9862 14.252 27.9487C14.3107 27.9112 14.3558 27.8562 14.3808 27.79L16.085 23.6787C16.1012 23.6375 16.1087 23.5937 16.1075 23.55C16.1062 23.5062 16.0962 23.4625 16.0775 23.4225C16.0587 23.3825 16.0324 23.3462 15.9999 23.3175C15.9674 23.2875 15.9287 23.265 15.8874 23.2512C15.8474 23.2337 15.8036 23.225 15.7599 23.225H9.92836C9.84209 23.225 9.75832 23.19 9.69705 23.1287C9.63579 23.0675 9.60203 22.9837 9.60203 22.8975C9.59703 22.845 9.60453 22.7925 9.62203 22.7437L9.61953 22.745Z" fill="#0E1017"/>
<path d="M12.1364 21.8162H16.6126C16.6788 21.8175 16.7451 21.7987 16.8001 21.7625C16.8551 21.7262 16.8989 21.6725 16.9226 21.6112L18.8819 16.9512C18.9069 16.89 18.9494 16.8362 19.0044 16.8C19.0594 16.7637 19.1257 16.7437 19.192 16.7462H24.9647C25.0335 16.7512 25.1035 16.7337 25.1623 16.6962C25.221 16.6587 25.266 16.605 25.2923 16.54L26.964 12.4687C26.9827 12.4275 26.9927 12.3837 26.9927 12.3387C26.9927 12.2937 26.9852 12.25 26.9677 12.2087C26.9502 12.1675 26.9252 12.13 26.8927 12.0987C26.8602 12.0675 26.8227 12.0437 26.7802 12.0275C26.7402 12.01 26.6964 12.0012 26.6527 12.0012H15.9399C15.8711 11.9962 15.8011 12.0137 15.7423 12.0512C15.6836 12.0887 15.6386 12.1425 15.6123 12.2075L11.8088 21.3575C11.7901 21.3975 11.7801 21.4425 11.7788 21.4862C11.7788 21.5312 11.7863 21.575 11.8026 21.6162C11.8188 21.6575 11.8451 21.695 11.8763 21.7262C11.9076 21.7575 11.9464 21.7825 11.9876 21.7975C12.0351 21.8137 12.0851 21.8212 12.1352 21.8175L12.1364 21.8162Z" fill="#0E1017"/>
<path d="M44.1771 14H33.2943C33.2143 14 33.138 14.0313 33.0818 14.0875C33.0255 14.1438 32.9943 14.22 32.9943 14.3V16.7875C32.9943 16.8675 33.0255 16.9438 33.0818 17C33.138 17.0563 33.2143 17.0875 33.2943 17.0875H36.6127C36.6927 17.0875 36.769 17.1188 36.8253 17.175C36.8815 17.2313 36.9128 17.3075 36.9128 17.3875V25.685C36.9128 25.765 36.944 25.8413 37.0003 25.8975C37.0566 25.9538 37.1328 25.985 37.2129 25.985H40.2549C40.3349 25.985 40.4112 25.9538 40.4674 25.8975C40.5237 25.8413 40.555 25.765 40.555 25.685V17.3875C40.555 17.3075 40.5862 17.2313 40.6425 17.175C40.6988 17.1188 40.775 17.0875 40.855 17.0875H44.1771C44.2572 17.0875 44.3334 17.0563 44.3897 17C44.446 16.9438 44.4772 16.8675 44.4772 16.7875V14.3C44.4772 14.22 44.446 14.1438 44.3897 14.0875C44.3334 14.0313 44.2572 14 44.1771 14Z" fill="#0E1017"/>
<path d="M75.2803 23.12C75.1152 23.12 75.074 23.0275 75.184 22.9075L76.937 20.955C77.0482 20.8325 77.222 20.6275 77.3296 20.5025L80.4804 16.735C80.5954 16.5812 80.6629 16.3962 80.6729 16.2037V14.3012C80.6729 14.2212 80.6417 14.145 80.5854 14.0887C80.5291 14.0325 80.4529 14.0012 80.3728 14.0012H71.263C71.183 14.0012 71.1067 14.0325 71.0504 14.0887C70.9942 14.145 70.9629 14.2212 70.9629 14.3012V16.6025C70.9629 16.6825 70.9942 16.7587 71.0504 16.815C71.1067 16.8712 71.183 16.9025 71.263 16.9025H73.3635L76.0192 16.87C76.1843 16.87 76.2293 16.9625 76.1155 17.0825L74.3638 19.035C74.2563 19.1575 74.0787 19.3625 73.9712 19.4912L70.8141 23.2562C70.6991 23.41 70.6316 23.595 70.6216 23.7875V25.6862C70.6216 25.7662 70.6528 25.8425 70.7091 25.8987C70.7654 25.955 70.8416 25.9862 70.9217 25.9862H80.3979C80.4779 25.9862 80.5541 25.955 80.6104 25.8987C80.6667 25.8425 80.6979 25.7662 80.6979 25.6862V23.3887C80.6979 23.3087 80.6667 23.2325 80.6104 23.1762C80.5541 23.12 80.4779 23.0887 80.3979 23.0887H77.926L75.2828 23.1212L75.2803 23.12Z" fill="#0E1017"/>
<path d="M86.2843 14H83.241C83.0747 14 82.9409 14.1337 82.9409 14.3V25.6912C82.9409 25.8562 83.0747 25.9913 83.241 25.9913H86.2843C86.4506 25.9913 86.5844 25.8562 86.5844 25.6912V14.3C86.5844 14.1337 86.4506 14 86.2843 14Z" fill="#0E1017"/>
<path d="M66.0116 26C65.9203 25.995 65.8303 25.9713 65.749 25.9288C65.6678 25.8875 65.5952 25.8275 65.5377 25.7563L61.1453 19.4887C61.0578 19.3512 60.9891 19.3713 60.9978 19.5363L61.0878 25.6987C61.0878 25.7787 61.0566 25.855 61.0003 25.9113C60.944 25.9675 60.8678 25.9987 60.7878 25.9987H58.2008C58.1208 25.9987 58.0445 25.9675 57.9883 25.9113C57.932 25.855 57.9008 25.7787 57.9008 25.6987V14.3C57.9008 14.22 57.932 14.1438 57.9883 14.0875C58.0445 14.0313 58.1208 14 58.2008 14H60.5289C60.6215 14.005 60.7115 14.0287 60.794 14.07C60.8765 14.1112 60.9503 14.1688 61.0091 14.24L65.1739 20.1175C65.2639 20.2588 65.3264 20.2375 65.3214 20.0725L65.2314 14.3C65.2314 14.22 65.2627 14.1438 65.3189 14.0875C65.3752 14.0313 65.4515 14 65.5315 14H68.1184C68.1984 14 68.2747 14.0313 68.3309 14.0875C68.3872 14.1438 68.4185 14.22 68.4185 14.3V25.7C68.4185 25.78 68.3872 25.8563 68.3309 25.9125C68.2747 25.9688 68.1984 26 68.1184 26H66.0116Z" fill="#0E1017"/>
<path d="M98.9851 25.7125L97.1846 22.2537L96.812 21.5425C96.7845 21.495 96.767 21.4587 96.7582 21.4375C96.7545 21.4312 96.752 21.4225 96.752 21.415C96.752 21.4075 96.7545 21.3987 96.7582 21.3925C96.7582 21.3925 96.8032 21.3387 96.8545 21.2875C96.8545 21.2875 97.1246 21.005 97.4547 20.5825C98.0573 19.855 98.3874 18.9387 98.3849 17.9937C98.3911 17.035 98.0511 16.105 97.4259 15.3775C96.8007 14.65 95.9343 14.1725 94.9853 14.0337C94.8527 14.0187 94.7215 14.01 94.5827 14.0012H89.1363C89.0562 14.0012 88.98 14.0325 88.9237 14.0887C88.8674 14.145 88.8362 14.2212 88.8362 14.3012V25.6737C88.8362 25.7537 88.8674 25.83 88.9237 25.8862C88.98 25.9425 89.0562 25.9737 89.1363 25.9737H91.807C91.887 25.9737 91.9632 25.9425 92.0195 25.8862C92.0758 25.83 92.107 25.7537 92.107 25.6737V22.0737C92.107 22.0337 92.1245 21.9962 92.152 21.9687C92.1795 21.9412 92.2183 21.925 92.2571 21.9237H93.2836C93.3273 21.9262 93.3711 21.94 93.4086 21.9637C93.4461 21.9875 93.4774 22.02 93.4999 22.0587L94.0313 23.1662L95.2528 25.6925C95.2954 25.77 95.3579 25.8362 95.4341 25.8837C95.5092 25.9312 95.5967 25.9587 95.6855 25.9625H98.8025C98.835 25.9712 98.8688 25.97 98.9013 25.96C98.9325 25.9487 98.9613 25.9287 98.9813 25.9012C99.0013 25.8737 99.0126 25.8412 99.0138 25.8087C99.0138 25.775 99.0051 25.7425 98.9863 25.7137L98.9851 25.7125ZM93.885 19.3125H92.132C92.1008 19.3125 92.072 19.2987 92.0495 19.2775C92.0283 19.2562 92.0158 19.2262 92.0145 19.195V16.84C92.0145 16.8087 92.0283 16.78 92.0495 16.7575C92.0708 16.7362 92.1008 16.7237 92.132 16.7225H93.9325C94.9353 16.7225 95.3279 17.2475 95.3279 17.9912C95.3366 18.8375 94.9253 19.3112 93.885 19.3112V19.3125Z" fill="#0E1017"/>
<path d="M55.6026 23.0025H50.025C49.9924 23.0025 49.9624 22.99 49.9399 22.9675C49.9174 22.945 49.9049 22.915 49.9049 22.8825V21.365C49.9049 21.3337 49.9187 21.3037 49.9412 21.2812C49.9637 21.2587 49.9937 21.2462 50.025 21.245H53.1395C53.2195 21.245 53.2958 21.2137 53.3521 21.1575C53.4083 21.1012 53.4396 21.025 53.4396 20.945V18.59C53.4396 18.51 53.4083 18.4337 53.3521 18.3775C53.2958 18.3212 53.2195 18.29 53.1395 18.29H50.025C49.9924 18.29 49.9624 18.2775 49.9399 18.255C49.9174 18.2325 49.9049 18.2025 49.9049 18.17V17.105C49.9049 17.0737 49.9187 17.0437 49.9412 17.0225C49.9637 17.0012 49.9937 16.9887 50.025 16.9887H55.4776C55.5576 16.9887 55.6339 16.9575 55.6902 16.9012C55.7464 16.845 55.7777 16.7687 55.7777 16.6887V14.3012C55.7777 14.2212 55.7464 14.145 55.6902 14.0887C55.6339 14.0325 55.5576 14.0012 55.4776 14.0012H46.6591C46.5791 14.0012 46.5028 14.0325 46.4465 14.0887C46.3903 14.145 46.359 14.2212 46.359 14.3012V25.6862C46.359 25.7662 46.3903 25.8425 46.4465 25.8987C46.5028 25.955 46.5791 25.9862 46.6591 25.9862H55.6039C55.6839 25.9862 55.7602 25.955 55.8164 25.8987C55.8727 25.8425 55.904 25.7662 55.904 25.6862V23.3037C55.904 23.2637 55.8965 23.225 55.8815 23.1887C55.8665 23.1525 55.844 23.1187 55.8164 23.0912C55.7889 23.0637 55.7552 23.0412 55.7189 23.0262C55.6827 23.0112 55.6439 23.0037 55.6039 23.0037L55.6026 23.0025Z" fill="#0E1017"/>
</g>
<defs>
<clipPath id="clip0_25_21">
<rect width="98.0253" height="16" fill="white" transform="translate(0.987305 12)"/>
</clipPath>
</defs>
</svg>

<svg xmlns="http://www.w3.org/2000/svg" width="100" height="40" fill="none" viewBox="0 -1 100 40"><g fill="#0E1017" clip-path="url(#a)"><path d="m9.62 22.745 4.344-10.278a.33.33 0 0 0-.067-.368.36.36 0 0 0-.241-.097H3.03a.33.33 0 0 0-.326.206l-1.69 4.07a.33.33 0 0 0-.002.26.3.3 0 0 0 .074.108q.05.047.111.072a.3.3 0 0 0 .128.026H6.47a.33.33 0 0 1 .3.459l-4.29 10.33a.33.33 0 0 0 .184.441.3.3 0 0 0 .128.026h11.261a.324.324 0 0 0 .327-.21l1.704-4.111a.327.327 0 0 0-.198-.428.3.3 0 0 0-.127-.026H9.928a.33.33 0 0 1-.326-.328.4.4 0 0 1 .02-.153z"/><path d="M12.136 21.816h4.477a.32.32 0 0 0 .31-.205l1.959-4.66a.32.32 0 0 1 .31-.205h5.773a.325.325 0 0 0 .327-.206l1.672-4.071a.33.33 0 0 0-.184-.441.3.3 0 0 0-.127-.027H15.94a.325.325 0 0 0-.328.207l-3.803 9.15a.33.33 0 0 0-.006.258.33.33 0 0 0 .185.181.4.4 0 0 0 .147.02zM44.177 14H33.294a.3.3 0 0 0-.3.3v2.488a.3.3 0 0 0 .3.3h3.319a.3.3 0 0 1 .3.3v8.297a.3.3 0 0 0 .3.3h3.042a.3.3 0 0 0 .3-.3v-8.297a.3.3 0 0 1 .3-.3h3.322a.3.3 0 0 0 .3-.3V14.3a.3.3 0 0 0-.3-.3m31.103 9.12c-.165 0-.206-.093-.096-.213l1.753-1.952c.111-.122.285-.327.393-.452l3.15-3.768a.97.97 0 0 0 .193-.531V14.3a.3.3 0 0 0-.3-.3h-9.11a.3.3 0 0 0-.3.3v2.301a.3.3 0 0 0 .3.3h2.1l2.656-.032c.165 0 .21.092.096.212l-1.751 1.953c-.108.122-.285.328-.393.456l-3.157 3.765a.97.97 0 0 0-.192.532v1.898a.3.3 0 0 0 .3.3h9.476a.3.3 0 0 0 .3-.3V23.39a.3.3 0 0 0-.3-.3h-2.472l-2.643.032zM86.284 14h-3.043a.3.3 0 0 0-.3.3v11.391a.3.3 0 0 0 .3.3h3.043a.3.3 0 0 0 .3-.3V14.3a.3.3 0 0 0-.3-.3M66.012 26a.64.64 0 0 1-.474-.244l-4.393-6.267c-.087-.138-.156-.118-.147.047l.09 6.163a.3.3 0 0 1-.3.3H58.2a.3.3 0 0 1-.3-.3V14.3a.3.3 0 0 1 .3-.3h2.328a.67.67 0 0 1 .48.24l4.165 5.877c.09.142.152.12.147-.044l-.09-5.773a.3.3 0 0 1 .3-.3h2.587a.3.3 0 0 1 .3.3v11.4a.3.3 0 0 1-.3.3zm32.973-.287-1.8-3.46-.373-.71a1 1 0 0 1-.054-.105l-.006-.023q0-.012.006-.023s.045-.053.097-.104c0 0 .27-.283.6-.706a4.04 4.04 0 0 0 .93-2.588 3.975 3.975 0 0 0-3.4-3.96 8 8 0 0 0-.402-.033h-5.447a.3.3 0 0 0-.3.3v11.373a.3.3 0 0 0 .3.3h2.671a.3.3 0 0 0 .3-.3v-3.6a.15.15 0 0 1 .045-.105.16.16 0 0 1 .105-.045h1.027a.26.26 0 0 1 .216.135l.531 1.107 1.222 2.526a.52.52 0 0 0 .433.27h3.116a.2.2 0 0 0 .1-.002.17.17 0 0 0 .112-.151.17.17 0 0 0-.028-.095zm-5.1-6.4h-1.753a.12.12 0 0 1-.083-.035.13.13 0 0 1-.035-.083V16.84a.12.12 0 0 1 .035-.082.12.12 0 0 1 .083-.035h1.8c1.003 0 1.396.524 1.396 1.268.009.846-.403 1.32-1.443 1.32zm-38.282 3.69h-5.578a.12.12 0 0 1-.12-.12v-1.518a.125.125 0 0 1 .12-.12h3.114a.3.3 0 0 0 .3-.3V18.59a.3.3 0 0 0-.3-.3h-3.114a.12.12 0 0 1-.12-.12v-1.065q.002-.048.036-.082a.12.12 0 0 1 .084-.034h5.453a.3.3 0 0 0 .3-.3V14.3a.3.3 0 0 0-.3-.3h-8.819a.3.3 0 0 0-.3.3v11.385a.3.3 0 0 0 .3.3h8.945a.3.3 0 0 0 .3-.3v-2.382a.3.3 0 0 0-.3-.3z"/></g><defs><clipPath id="a"><path fill="#fff" d="M.987 12h98.025v16H.987z"/></clipPath></defs></svg>
